Sources/FrostedUI/Resources/Icons.xcassets/photo32.imageset/photo-32.svg

<svg width="32" height="32" viewBox="0 0 32 32" fill="none" xmlns="http://www.w3.org/2000/svg" data-fui-icon="true">
  <path
    d="M24.25 2C27.4256 2 30 4.57436 30 7.75V24.25C30 24.3164 29.9964 24.3824 29.9941 24.4482C29.9985 24.5114 29.9969 24.5744 29.9854 24.6367C29.7864 27.632 27.2956 30 24.25 30H7.75C4.57436 30 2 27.4256 2 24.25V7.75C2 4.57436 4.57436 2 7.75 2H24.25ZM9.29883 16C8.56055 16 7.85819 16.3182 7.37109 16.873L3.5 21.2822V24.25C3.5 26.5972 5.40279 28.5 7.75 28.5H22.2559L11.1611 16.7998C10.6767 16.2889 10.0029 16 9.29883 16ZM21.0781 18C20.3357 18 19.6323 18.335 19.1641 18.9111L17.3477 21.1455L24.3193 28.498C26.462 28.4638 28.2177 26.8451 28.4678 24.7617L22.8799 18.7822C22.4136 18.2833 21.761 18 21.0781 18ZM7.75 3.5C5.40279 3.5 3.5 5.40279 3.5 7.75V19.0078L6.24316 15.8838C7.01506 15.0045 8.12879 14.5 9.29883 14.5C10.4146 14.5 11.4813 14.959 12.249 15.7686L16.3066 20.0479L18 17.9648C18.7531 17.0382 19.8841 16.5 21.0781 16.5C22.1764 16.5 23.2256 16.9554 23.9756 17.7578L28.5 22.5986V7.75C28.5 5.40279 26.5972 3.5 24.25 3.5H7.75ZM18 6C20.2091 6 22 7.79086 22 10C22 12.2091 20.2091 14 18 14C15.7909 14 14 12.2091 14 10C14 7.79086 15.7909 6 18 6ZM18 7.5C16.6193 7.5 15.5 8.61929 15.5 10C15.5 11.3807 16.6193 12.5 18 12.5C19.3807 12.5 20.5 11.3807 20.5 10C20.5 8.61929 19.3807 7.5 18 7.5Z"
    fill="currentColor"
  />
</svg>

<svg xmlns="http://www.w3.org/2000/svg" width="32" height="32" fill="none" data-fui-icon="true" viewBox="0 0 32 32"><path fill="currentColor" d="M24.25 2A5.75 5.75 0 0 1 30 7.75v16.5q-.002.099-.006.198a.8.8 0 0 1-.009.189A5.75 5.75 0 0 1 24.25 30H7.75A5.75 5.75 0 0 1 2 24.25V7.75A5.75 5.75 0 0 1 7.75 2zM9.299 16c-.738 0-1.44.318-1.928.873L3.5 21.283v2.967a4.25 4.25 0 0 0 4.25 4.25h14.506L11.16 16.8A2.57 2.57 0 0 0 9.3 16m11.78 2c-.743 0-1.447.335-1.915.911l-1.816 2.234 6.971 7.353a4.25 4.25 0 0 0 4.149-3.736l-5.588-5.98A2.47 2.47 0 0 0 21.078 18M7.75 3.5A4.25 4.25 0 0 0 3.5 7.75v11.258l2.743-3.124a4.067 4.067 0 0 1 6.006-.115l4.058 4.279L18 17.965a3.967 3.967 0 0 1 5.976-.207l4.524 4.84V7.75a4.25 4.25 0 0 0-4.25-4.25zM18 6a4 4 0 1 1 0 8 4 4 0 0 1 0-8m0 1.5a2.5 2.5 0 1 0 0 5 2.5 2.5 0 0 0 0-5"/></svg>
